X: 31195
T: Paddy Fahey's
R: reel
M: 4/4
K: Dmajor
A2 FA dcdc|AGFA GE=CE|A2 FA dcdA|G2 FG EG,=CE|
A2 FA dcdc|AGFA GE=CE|Addd adfd|B=cG=F EG,=CE||
Addd adbd|eddd =cAGB|Addd adfe|B=cG=F EG,=CE|
Aded adfd|Addc defg|(3agf (3gfe fded|=cAGB Add^c||

